public/assets/icons/white/aoe_burst.svg

<?xml version="1.0" encoding="UTF-8" standalone="no"?>
<svg
   version="1.1"
   viewBox="0 -64 1024 1024"
   width="512"
   height="512"
   id="svg1"
   sodipodi:docname="aoe_burst.svg"
   inkscape:version="1.3.1 (91b66b0783, 2023-11-16)"
   xmlns:inkscape="http://www.inkscape.org/namespaces/inkscape"
   xmlns:sodipodi="http://sodipodi.sourceforge.net/DTD/sodipodi-0.dtd"
   xmlns="http://www.w3.org/2000/svg"
   xmlns:svg="http://www.w3.org/2000/svg">
  <defs
     id="defs1" />
  <sodipodi:namedview
     id="namedview1"
     pagecolor="#ffffff"
     bordercolor="#000000"
     borderopacity="0.25"
     inkscape:showpageshadow="2"
     inkscape:pageopacity="0.0"
     inkscape:pagecheckerboard="0"
     inkscape:deskcolor="#d1d1d1"
     inkscape:zoom="1.6230469"
     inkscape:cx="255.69194"
     inkscape:cy="256"
     inkscape:window-width="1920"
     inkscape:window-height="1009"
     inkscape:window-x="1912"
     inkscape:window-y="-8"
     inkscape:window-maximized="1"
     inkscape:current-layer="svg1" />
  <g
     transform="matrix(1 0 0 -1 0 960)"
     id="g1"
     style="fill:#ffffff">
    <path
       fill="currentColor"
       d="M888 448q0 -76 -30.5 -146t-79.5 -120q-50 -49 -120 -79.5t-146 -30.5t-146 30.5t-119 79.5q-50 50 -80.5 120t-30.5 146t30.5 146t80.5 119q49 50 119 80.5t146 30.5t146 -30.5t120 -80.5q49 -49 79.5 -119t30.5 -146v0zM729 665q-43 43 -97 66.5t-120 23.5 q-65 0 -119.5 -23.5t-97.5 -66.5t-66.5 -97.5t-23.5 -119.5q0 -66 23.5 -120t66.5 -97t97.5 -66.5t119.5 -23.5q66 0 120 23.5t97 66.5t66.5 97t23.5 120q0 65 -23.5 119.5t-66.5 97.5zM341 448l171 171l171 -171l-171 -171z"
       id="path1"
       style="fill:#ffffff" />
  </g>
</svg>

<?xml version="1.0" encoding="UTF-8" standalone="no"?>
<svg
   version="1.1"
   viewBox="0 -64 1024 1024"
   width="512"
   height="512"
   id="svg1"
   sodipodi:docname="aoe_burst.svg"
   inkscape:version="1.2.2 (732a01da63, 2022-12-09)"
   xmlns:inkscape="http://www.inkscape.org/namespaces/inkscape"
   xmlns:sodipodi="http://sodipodi.sourceforge.net/DTD/sodipodi-0.dtd"
   xmlns="http://www.w3.org/2000/svg"
   xmlns:svg="http://www.w3.org/2000/svg">
  <defs
     id="defs1" />
  <sodipodi:namedview
     id="namedview1"
     pagecolor="#ffffff"
     bordercolor="#000000"
     borderopacity="0.25"
     inkscape:showpageshadow="2"
     inkscape:pageopacity="0.0"
     inkscape:pagecheckerboard="0"
     inkscape:deskcolor="#d1d1d1"
     inkscape:zoom="1.6230469"
     inkscape:cx="236.28399"
     inkscape:cy="256.30806"
     inkscape:window-width="1920"
     inkscape:window-height="1009"
     inkscape:window-x="-8"
     inkscape:window-y="-8"
     inkscape:window-maximized="1"
     inkscape:current-layer="svg1"
     showgrid="false" />
  <g
     transform="matrix(1,0,0,-1,0,896)"
     id="g1"
     style="fill:#ffffff">
    <path
       fill="currentColor"
       d="M 888,448 Q 888,372 857.5,302 827,232 778,182 728,133 658,102.5 588,72 512,72 436,72 366,102.5 296,133 247,182 197,232 166.5,302 136,372 136,448 q 0,76 30.5,146 30.5,70 80.5,119 49,50 119,80.5 70,30.5 146,30.5 76,0 146,-30.5 Q 728,763 778,713 827,664 857.5,594 888,524 888,448 Z M 729,665 Q 686,708 632,731.5 578,755 512,755 447,755 392.5,731.5 338,708 295,665 252,622 228.5,567.5 205,513 205,448 205,382 228.5,328 252,274 295,231 338,188 392.5,164.5 447,141 512,141 q 66,0 120,23.5 54,23.5 97,66.5 43,43 66.5,97 23.5,54 23.5,120 0,65 -23.5,119.5 Q 772,622 729,665 Z M 341,448 512,619 683,448 512,277 Z"
       id="path1"
       style="fill:#ffffff" />
  </g>
</svg>
